X:1
T:James Gibb editions
T:I lift my heart to Thee - Barnby
%%score [ ( 1 2 ) ( 3 4 5 ) ]
L:1/8
Q:1/4=102
M:2/2
K:F
V:1 treble nm="Midi_74"
V:2 treble 
V:3 bass nm="Midi_74"
V:4 bass 
V:5 bass 
V:1
"^I lift my heart to Thee""^Joseph Barnby\n(1838-96)""^Charles Edward Mudie\n(1818-90)"!p!"^64. 64. 10. 10"!<(! F4 G2!<)! A2 | %1
 !>!A3 G G4 | !>!B4 A2 G2 | F8 ||!<(! A4 =B2!<)! c2 | !>!c3!>(! =B B4!>)! ||!pp! d4"^1" c2 =B2 | %7
 A8 ||!mf! A4 A2 d2 | d6 c2 | c2 B2 B2 A2 | B6 || B2 | !>!A3!>(! G F2 G2!>)! | A3 z"^Slow" B4 | %15
 G6 F2 | F8 || F8 | F8 |] %19
V:2
 C4 C2 C2 | !>!D3 D D4 | !>!E4 E2 E2 | F8 || C4 D2 E2 | !>!F3 F F4 || F4 E2 D2 | C8 || D4 E2 ^F2 | %9
 G6 G2 | G2 G2 ^F2 F2 | G6 || D2 | !>!E3 E F2 F2 | F3 z F4 | E6 F2 | C8 || D8 | C8 |] %19
V:3
!p! A,4 B,2 C2 | !>!C3 B, B,4 | !>!D4 C2 B,2 | A,8 || A,4 A,2 A,2 | !>!A,3 A, A,4 || A,4 ^G,2 G,2 | %7
 A,8 || A,4"^cresc." C2 C2 | B,4 _E4 | %10
"^1. I lift my heart to Thee, Saviour divine,\nFor Thou art all to me, and I am Thine.\nIs there on earth a closer bond than this,\nThat \"My Beloved's mine, and I am His?\"\n\n2. To Thee, Thou bleeding Lamb, I all things owe;\nAll that I have and am, and all I know.\nAll that I have is now no longer mine,\nAnd I am not mine own;--Lord, I am Thine.\n\n3. How can I, Lord, withhold life's brightest hour\nFrom Thee; or gathered gold, or any pow'r?\nWhy should I keep one precious thing from Thee,\nWhen Thou hast giv'n Thine own dear self for me?" D2 D2 D2 C2 | %11
 B,6 || G,2 | !>!E,3 A, A,2 B,2 | C3 z!pp! D4 | B,6 A,2 | A,8 || B,8 | [F,A,]8 |] %19
V:4
 F,4 F,2 F,2 | !>!B,,3 B,, B,,4 | !>!C,4 C,2 C,2 | F,8 || F,4 E,2 E,2 | !>!D,3 D, D,4 || %6
 =B,,4 E,2 E,2 | A,,8 || ^F,4 D,2 D,2 | G,4 C,4 | D,2 D,2 D,2 D,2 | G,6 || G,2 | %13
 !>!^C,3 C, D,2 D,2 | C,3 z C,4 | C,6 F,2 | F,8 || B,,8 | F,,8 |] %19
V:5
 x8 | x8 | x8 | x8 || x8 | x8 || x8 | x8 || x8 | x8 | x8 | x6 || x2 | x4 x4 | x4 x4 | C,,6 F,,2 | %16
 F,,8 || x4 x4 | x4 x4 |] %19

